src/assets/fa-icon-bin.svg

<svg width="12" height="406" viewBox="0 0 384 406" fill="none" xmlns="http://www.w3.org/2000/svg">
<path d="M256 42.6667V0H128V42.6667H0V85.3333H384V42.6667H256Z" fill="#D83025"/>
<path d="M42.668 106.667V362.667C42.668 386.197 61.804 405.333 85.3346 405.333H298.668C322.199 405.333 341.335 386.197 341.335 362.667V106.667H42.668ZM170.668 320H128.001V192H170.668V320ZM256.001 320H213.335V192H256.001V320Z" fill="#D83025"/>
</svg>

<svg width="12" height="406" viewBox="0 0 384 406" fill="none" xmlns="http://www.w3.org/2000/svg"><path d="M256 42.667V0H128v42.667H0v42.666h384V42.667H256zm-213.332 64v256c0 23.53 19.136 42.666 42.667 42.666h213.333c23.531 0 42.667-19.136 42.667-42.666v-256H42.668zm128 213.333h-42.667V192h42.667v128zm85.333 0h-42.666V192h42.666v128z" fill="#D83025"/></svg>
